packages/gestalt-icons-android/vr-theme/ic_vr_camera-flip_gestalt.svg

<svg width="24" height="24" viewBox="0 0 24 24" fill="none" xmlns="http://www.w3.org/2000/svg">
<path fill-rule="evenodd" clip-rule="evenodd" d="M13.4142 6.00001L15.7071 8.2929L14.2929 9.70712L9.58579 5.00001L14.2929 0.292908L15.7071 1.70712L13.4142 4.00001L19 4.00001C21.7614 4.00001 24 6.23858 24 9.00001V15C24 17.7614 21.7614 20 19 20H17V18H19C20.6569 18 22 16.6569 22 15V9.00001C22 7.34315 20.6569 6.00001 19 6.00001L13.4142 6.00001ZM5 6.00002C3.34315 6.00002 2 7.34316 2 9.00002V15C2 16.6569 3.34315 18 5 18L10.5858 18L8.29289 15.7071L9.70711 14.2929L14.4142 19L9.70711 23.7071L8.29289 22.2929L10.5858 20L5 20C2.23858 20 0 17.7614 0 15V9.00002C0 6.2386 2.23858 4.00002 5 4.00002H7V6.00002H5Z" fill="black"/>
</svg>

<svg xmlns="http://www.w3.org/2000/svg" width="24" height="24"><path d="m13.41 6 2.3 2.3-1.42 1.4L9.6 5 14.3.3l1.42 1.4L13.4 4H19a5 5 0 0 1 5 5v6a5 5 0 0 1-5 5h-2v-2h2a3 3 0 0 0 3-3V9a3 3 0 0 0-3-3zM5 6a3 3 0 0 0-3 3v6a3 3 0 0 0 3 3h5.59l-2.3-2.3 1.42-1.4 4.7 4.7-4.7 4.7-1.42-1.4 2.3-2.3H5a5 5 0 0 1-5-5V9a5 5 0 0 1 5-5h2v2z"/></svg>
